icon/lg/github-copilot.svg

<?xml version="1.0" encoding="UTF-8"?>
<svg viewBox="0 0 256 208" version="1.1" xmlns="http://www.w3.org/2000/svg" xmlns:xlink="http://www.w3.org/1999/xlink" preserveAspectRatio="xMidYMid" height="1em" width="1em">
  <g>
    <path d="M205.28,31.36 C219.376,46.24 225.296,66.56 227.792,95.04 C234.417867,95.04 240.5968,96.5093333 244.768,102.192 L252.56,112.752 C254.8,115.792 256,119.424 256,123.2 L256,151.888 C255.992,155.592267 254.1568,159.203467 251.168,161.392 C215.885333,187.222133 172.3496,208 128,208 C78.9344,208 29.8098667,179.726667 4.832,161.392 C1.84330667,159.203467 0.00722666667,155.592267 0,151.888 L0,123.2 C0,119.424 1.2,115.776 3.424,112.736 L11.216,102.192 C15.3891733,96.5349333 21.5953067,95.04 28.208,95.04 C30.704,66.56 36.608,46.24 50.72,31.36 C77.3312,3.1648 112.56728,0.06016 127.552142,0.00088672 L128,0 C142.72,0 178.4,2.88 205.28,31.36 Z M128.016,78.736 C124.976,78.736 121.472,78.912 117.744,79.28 C116.432,84.176 114.496,88.592 111.664,91.408 C100.464,102.608 86.96,104.336 79.728,104.336 C72.9258667,104.336 65.8005333,102.915733 59.984,99.248 C54.4816,101.056 49.1978667,103.6632 48.848,110.16 C48.2621333,122.440533 48.2112,134.709333 48.1602667,146.984 C48.1336,153.144533 48.1093333,159.3064 48.016,165.472 C48.04,169.050667 50.1978667,172.3752 53.456,173.856 C79.936,185.92 104.976,192 128.016,192 C151.024,192 176.064,185.92 202.528,173.856 C205.786133,172.3752 207.9432,169.050667 207.968,165.472 C208.285333,147.0536 208.029867,128.560267 207.152,110.16 L207.168,110.16 C206.826133,103.625867 201.520267,101.061867 196,99.248 C190.179467,102.899733 183.072533,104.336 176.272,104.336 C169.04,104.336 155.552,102.608 144.336,91.408 C141.504,88.592 139.568,84.176 138.256,79.28 C134.853333,78.9338667 131.436,78.7525333 128.016,78.736 Z M101.074933,122.666667 C106.8232,122.666667 111.4832,127.326667 111.4832,133.074933 L111.4832,152.2584 C111.4832,158.006667 106.8232,162.666667 101.074933,162.666667 C95.3266667,162.666667 90.6666667,158.006667 90.6666667,152.2584 L90.6666667,133.074933 C90.6666667,127.326667 95.3266667,122.666667 101.074933,122.666667 Z M154.408267,122.666667 C160.156533,122.666667 164.816533,127.326667 164.816533,133.074933 L164.816533,133.074933 L164.816533,152.2584 C164.816533,158.006667 160.156533,162.666667 154.408267,162.666667 C148.66,162.666667 144,158.006667 144,152.2584 L144,152.2584 L144,133.074933 C144,127.326667 148.66,122.666667 154.408267,122.666667 Z M81.44,28.32 C70.24,29.44 60.8,33.12 56,38.24 C45.6,49.6 47.84,78.4 53.76,84.48 C58.08,88.8 66.24,91.68 75.04,91.68 C81.76,91.68 94.56,90.24 105.12,79.52 C109.76,75.04 112.64,63.84 112.32,52.48 C112,43.36 109.44,35.84 105.6,32.64 C101.44,28.96 92,27.36 81.44,28.32 Z M150.4,32.64 C146.56,35.84 144,43.36 143.68,52.48 C143.36,63.84 146.24,75.04 150.88,79.52 C161.44,90.24 174.24,91.68 180.96,91.68 C189.76,91.68 197.92,88.8 202.24,84.48 C208.16,78.4 210.4,49.6 200,38.24 C195.2,33.12 185.76,29.44 174.56,28.32 C164,27.36 154.56,28.96 150.4,32.64 Z M128,56 C125.44,56 122.4,56.16 119.04,56.48 C119.36,58.24 119.52,60.16 119.68,62.24 C119.68,63.68 119.68,65.12 119.52,66.72 C122.72,66.4 125.44,66.4 128,66.4 C130.559733,66.4 133.28,66.4 136.48,66.72 C136.32,65.12 136.32,63.6802667 136.32,62.2402667 C136.48,60.1602667 136.64,58.24 136.96,56.48 C133.6,56.16 130.56,56 128,56 Z" fill="#000000"/>
  </g>
</svg>

<svg width="256" height="208" xmlns="http://www.w3.org/2000/svg" preserveAspectRatio="xMidYMid"><path d="M205.28 31.36c14.096 14.88 20.016 35.2 22.512 63.68 6.626 0 12.805 1.47 16.976 7.152l7.792 10.56A17.548 17.548 0 0 1 256 123.2v28.688c-.008 3.704-1.843 7.315-4.832 9.504C215.885 187.222 172.35 208 128 208c-49.066 0-98.19-28.273-123.168-46.608-2.989-2.189-4.825-5.8-4.832-9.504V123.2c0-3.776 1.2-7.424 3.424-10.464l7.792-10.544c4.173-5.657 10.38-7.152 16.992-7.152 2.496-28.48 8.4-48.8 22.512-63.68C77.331 3.165 112.567.06 127.552 0H128c14.72 0 50.4 2.88 77.28 31.36Zm-77.264 47.376c-3.04 0-6.544.176-10.272.544-1.312 4.896-3.248 9.312-6.08 12.128-11.2 11.2-24.704 12.928-31.936 12.928-6.802 0-13.927-1.42-19.744-5.088-5.502 1.808-10.786 4.415-11.136 10.912-.586 12.28-.637 24.55-.688 36.824-.026 6.16-.05 12.322-.144 18.488.024 3.579 2.182 6.903 5.44 8.384C79.936 185.92 104.976 192 128.016 192c23.008 0 48.048-6.08 74.512-18.144 3.258-1.48 5.415-4.805 5.44-8.384.317-18.418.062-36.912-.816-55.312h.016c-.342-6.534-5.648-9.098-11.168-10.912-5.82 3.652-12.927 5.088-19.728 5.088-7.232 0-20.72-1.728-31.936-12.928-2.832-2.816-4.768-7.232-6.08-12.128a106.26 106.26 0 0 0-10.24-.544Zm-26.941 43.93c5.748 0 10.408 4.66 10.408 10.409v19.183c0 5.749-4.66 10.409-10.408 10.409-5.748 0-10.408-4.66-10.408-10.409v-19.183c0-5.748 4.66-10.408 10.408-10.408Zm53.333 0c5.749 0 10.409 4.66 10.409 10.409v19.183c0 5.749-4.66 10.409-10.409 10.409-5.748 0-10.408-4.66-10.408-10.409v-19.183c0-5.748 4.66-10.408 10.408-10.408ZM81.44 28.32c-11.2 1.12-20.64 4.8-25.44 9.92-10.4 11.36-8.16 40.16-2.24 46.24 4.32 4.32 12.48 7.2 21.28 7.2 6.72 0 19.52-1.44 30.08-12.16 4.64-4.48 7.52-15.68 7.2-27.04-.32-9.12-2.88-16.64-6.72-19.84-4.16-3.68-13.6-5.28-24.16-4.32Zm68.96 4.32c-3.84 3.2-6.4 10.72-6.72 19.84-.32 11.36 2.56 22.56 7.2 27.04 10.56 10.72 23.36 12.16 30.08 12.16 8.8 0 16.96-2.88 21.28-7.2 5.92-6.08 8.16-34.88-2.24-46.24-4.8-5.12-14.24-8.8-25.44-9.92-10.56-.96-20 .64-24.16 4.32ZM128 56c-2.56 0-5.6.16-8.96.48.32 1.76.48 3.68.64 5.76 0 1.44 0 2.88-.16 4.48 3.2-.32 5.92-.32 8.48-.32 2.56 0 5.28 0 8.48.32-.16-1.6-.16-3.04-.16-4.48.16-2.08.32-4 .64-5.76-3.36-.32-6.4-.48-8.96-.48Z"/></svg>
